X:2
T:College Song
M:C|
K:C
L:1/4
Q:1/2=120
 G2 | e4 | d2e2 | c4 | G2G2 | g4 | f2 g2 | e5 z c2| c'2c'2 | c'2c'2 | g4 | 
 e2g2 | g2fe | f2g2 | e6 c2 | a2a2 | c'2a2 | g4 | e2g2 | g2fe | f2d2 | c6 |]
